<?xml version="1.0" encoding="UTF-8"?>
<map version="1.10" tiledversion="1.11.2" orientation="orthogonal" renderorder="right-down" width="32" height="24" tilewidth="8" tileheight="8" infinite="0" nextlayerid="2" nextobjectid="1">
 <editorsettings>
  <export format="csv"/>
 </editorsettings>
 <tileset firstgid="1" name="level1_tileset" tilewidth="8" tileheight="8" tilecount="4" columns="4">
  <image source="../graphics/level1/level1_tileset.png" width="32" height="8"/>
 </tileset>
 <layer id="1" name="Tile Layer 1" width="32" height="24">
  <data encoding="csv">
1,1,1,1,1,1,1,1,1,1,1,1,1,1,1,1,1,1,1,1,1,1,1,1,1,1,1,1,1,1,1,1,
1,2,2,2,2,2,2,2,2,2,2,2,2,2,2,2,2,2,2,2,2,2,2,2,1,2,2,2,2,2,2,1,
1,1,1,1,2,1,1,1,1,1,1,1,1,1,2,1,2,1,1,1,2,2,2,2,2,2,1,2,2,1,2,1,
1,2,2,1,2,2,2,2,2,2,2,2,2,2,2,1,2,2,2,1,2,2,1,2,1,1,1,1,2,2,3,1,
1,2,1,1,2,1,1,1,2,1,1,1,1,1,2,1,2,1,2,1,1,2,1,2,2,2,2,1,1,1,1,1,
1,2,2,2,2,2,2,2,2,1,2,2,2,1,2,1,2,1,2,2,2,2,1,1,1,1,2,2,2,2,2,1,
1,1,1,1,2,1,1,1,2,1,2,2,1,1,2,1,2,1,1,1,1,2,2,2,2,1,1,1,1,2,2,1,
1,2,2,1,2,2,2,1,2,1,1,1,1,2,2,1,2,2,2,2,1,1,1,1,2,2,2,2,1,1,2,1,
1,2,2,1,1,1,1,1,2,2,2,2,2,2,1,1,2,1,1,2,2,2,2,1,1,1,1,2,2,2,2,1,
1,2,2,2,2,2,2,2,2,1,1,1,2,1,1,2,2,2,2,2,2,2,2,2,2,2,1,1,1,1,2,1,
1,2,1,1,1,1,1,1,2,2,2,1,2,1,2,2,1,1,1,1,1,2,1,1,1,2,2,2,2,1,2,1,
1,2,2,2,2,2,2,2,2,2,2,2,2,2,2,2,2,2,2,2,2,2,2,2,2,2,2,2,1,1,2,1,
1,2,1,2,1,1,1,1,2,1,1,1,1,1,1,2,1,1,1,1,1,2,1,1,1,1,1,2,2,1,2,1,
1,2,1,2,1,2,2,2,2,2,1,2,2,2,1,2,1,2,2,2,1,2,1,2,2,2,1,2,2,1,2,1,
1,2,1,2,1,2,1,2,2,2,1,2,1,2,1,2,1,2,1,2,1,2,1,2,1,2,1,1,1,1,1,1,
1,2,1,2,1,1,1,2,2,2,1,2,1,2,1,2,1,2,1,2,1,2,1,2,1,2,2,2,2,1,2,1,
1,2,1,2,2,2,2,2,2,2,1,2,1,2,1,2,1,2,1,2,1,2,1,2,1,2,1,1,1,1,2,1,
1,2,1,1,1,1,1,1,2,1,1,2,1,2,1,1,1,2,1,2,1,1,1,2,1,2,1,2,2,2,2,1,
1,2,2,2,1,2,2,1,2,2,2,2,2,2,2,2,2,2,2,2,2,2,2,2,2,2,1,2,2,1,2,1,
1,2,1,2,1,2,1,1,2,1,1,1,1,1,2,1,1,1,1,1,2,1,1,1,1,2,1,1,2,1,2,1,
1,2,1,2,2,2,2,2,2,2,2,2,2,2,2,2,2,2,2,1,2,2,2,2,2,2,2,2,2,1,2,1,
1,2,1,1,1,1,1,1,1,1,1,1,1,1,1,1,1,1,1,1,1,1,1,1,1,2,1,1,1,1,2,1,
1,2,2,2,2,2,2,2,2,2,2,2,2,2,2,2,2,2,2,2,2,2,2,2,2,2,2,2,2,2,2,1,
1,1,1,1,1,1,1,1,1,1,1,1,1,1,1,1,1,1,1,1,1,1,1,1,1,1,1,1,1,1,1,1
</data>
 </layer>
</map>
